img/manaSymbols/old/oldb.svg

﻿<?xml version="1.0" encoding="utf-8"?>
<svg width="600" height="600" viewBox="0 0 600 600" version="1.1" xmlns="http://www.w3.org/2000/svg" xml:space="preserve" style="fill-rule: evenodd; clip-rule: evenodd; stroke-linejoin: round; stroke-miterlimit: 2;" preserveAspectRatio="xMidYMid meet" zoomAndPan="magnify" contentScriptType="application/ecmascript" contentStyleType="text/css">
  <g id="layer1" transform="matrix(1,0,0,1,55.1373,192.501)">
    <circle cx="-265" cy="365.068" r="50" transform="matrix(6,0,0,6,1834.86,-2082.91)" />
    <path d="M299.997 0c165.575 0 300 134.424 300 300 0 165.574-134.425 300-300 300-165.574 0-300-134.426-300-300 0-165.576 134.426-300 300-300zm12.045 529.278c.985-24.01-2.46-47.45 3.403-70.56 1.893-7.456 2.316-27.37-10.005-27.37-14.605-3.754-14.657 14.73-16.897 25.49l-6.456 23.387c-.527 8.787-1.05 17.576-1.576 26.363.554 28.397 3.484 44.352-5.904 48.76-8.408 2.883-32.88 11.967-39.525 0-3.425-15.42-1.732-31.52-1.732-47.415-.158-7.202-.314-14.41-.473-21.614 1.887-10.187 5.557-24.412-3.384-32.46-1.522-.33-3.044-.66-4.567-.992-5.616 5.055-4.602 21.222-5.196 27.78-2.247 24.777-3.228 49.706-3.228 74.627-2.102 2.315-4.2 4.63-6.3 6.946-5.19 0-32.355 4.414-34.566-1.56-2.24-4.03-6.69-7.193-7.796-11.835-1.156-18.18.21-78.222 1.85-85.635 1.012-6.258 3.4-12.614 5.79-18.97 5.72-18.385 9.346-47.528 4.17-62.15-11.055-31.248-48.708-15.55-67.866-11.238-22.73 5.114-53.337-2.368-69.843-20.654-14.1-15.618-11.265-39.394-10.395-58.964 2.028-45.63 22.314-103.9 49.605-140.747 20.507-27.69 44.496-64.842 58.186-60.735 10.988 3.296 27.96 26.727 37.322 35.152 4.28 3.85 10.172 13.11 16.455 9.424 6.285-3.682-6.407-19.37-9.21-25.937-4.433-10.368-4.097-24.352-4.097-35.576 5.678-10.22 23.51-15.3 34.172-18.498 5.018-2.436 108.567-32.893 128.42-16.087 6.252 16.882-8.818 27.726-8.818 43.3l3.62.426c7.074-6.365 33.63-25.38 44.41-24.167l12.203 6.732c4.845 3.568 10.03 5.93 11.024 12.19 1.074 6.77-5.965 14.537-8.503 20.48-8.306 19.44-10.686 37.42-36.928 34.585-11.52-1.245-24.42-17.926-37.322-12.118-.366 3.47-.735 6.945-1.103 10.416 2.375 4.987 29.454 35.86 32.363 37.987l13.542 9.07c5.13 2.858 12.75 4.395 18.582 4.395 21.392-4.814 21.26-38.4 21.26-55.35 6.882-11.796 20.17-36.994 28.188-40.68 8.234 2.818 62.406 44.13 120.78 161.585 2.6 7.798 31.676 82.667-4.17 109.85-18.787 12.075-41.056 6.777-62.045 7.722-22.468 1.012-48.533 15.37-61.416 33.592-5.762 8.15-13.638 18.033-16.062 27.853-6.863 27.796 3.93 58.112 2.362 86.32-.582 10.486 3.455 26.38-1.26 35.93-3.81 7.72-44.664 23.723-52.36 16.796-3.615-9.76 2.21-20.07 4.016-29.41 2.324-12.032 4.5-26.122 4.5-38.347 0-5.16 1.202-17.594-13.205-17.606-13.998.848-14.25 24.47-14.303 27.51-.113 1.416-.072 5.002.045 9.673l1.01 32.366c.116 4.672.157 8.258.044 9.676-2.608 8.172-24.37 7.7-34.108 7.7l3.3-37.412zm-5.01-126.426c3.138 1.79 6.77.566 8.754-2.56 1.83-5.05 3.662-10.1 5.493-15.147 6.353-9.528 21.285-3.936 21.285-20.716 0-3.53-1.18-6.504-4.397-8.434-17.96-10.776-52.526-14.564-56.737 11.972-1.46 9.198 11.314 8.546 14.748 14.73 0 3.193-.434 12.51.695 15.562 3.426 2.055 6.26 4.172 10.16 4.592zm.334.023 1.133.07-.118.26-1.016-.33-.334-.023-.452-.234.786.257zM162.818 183.748c-7.16.793-14.868.064-21.505 3.55-15.838 8.31-35.393 36.384-38.06 53.974-1.192 7.888-6.395 14.607-2.427 22.64 3.95 8 19.42 12.36 26.663 15.773 22.085 10.412 44.32 13.632 68.478 14.99 11.505.648 24.435 3.857 34.992-2.082 18.553-10.433 11.245-29.307 7.172-45.44-25.007-68.513-52.73-62.285-75.314-63.405zm255.972 5.32c4.795-2.668 9.515-1.515 14.728-1.985 34.154-3.073 59.814 25.608 70.098 55.693 2.175 6.357 4.99 13.12 3.876 20.143-1.456 9.18-13.093 15.748-18.162 22.59-16.45 7.4-36.043 2.68-53.442 1.56-21.404-1.376-59.81 7.967-66.86-21.628-.405-7.166-.81-14.332-1.213-21.498 0-6.988.707-10.766 3.99-17.094 9.21-17.76 32.01-24.643 45.46-36.748.508-.346 1.016-.69 1.525-1.035z" style="fill: rgb(134, 144, 133);" transform="matrix(1,0,0,1,-55.1373,-192.501)" />
  </g>
</svg>

<?xml version="1.0" encoding="UTF-8" standalone="no"?>
<!DOCTYPE svg PUBLIC "-//W3C//DTD SVG 1.1//EN" "http://www.w3.org/Graphics/SVG/1.1/DTD/svg11.dtd">
<svg width="600" height="600" viewBox="0 0 600 600" version="1.1" xmlns="http://www.w3.org/2000/svg" xmlns:xlink="http://www.w3.org/1999/xlink" xml:space="preserve" xmlns:serif="http://www.serif.com/" style="fill-rule:evenodd;clip-rule:evenodd;stroke-linejoin:round;stroke-miterlimit:2;">
    <g id="layer1" transform="matrix(1,0,0,1,55.1373,192.501)">
        <g transform="matrix(6,0,0,6,1834.86,-2082.91)">
            <circle cx="-265" cy="365.068" r="50"/>
        </g>
        <g transform="matrix(1,0,0,1,-55.1373,-192.501)">
            <path d="M299.997,-0.001C465.572,-0.001 599.997,134.424 599.997,299.999C599.997,465.574 465.572,599.999 299.997,599.999C134.423,599.999 -0.003,465.574 -0.003,299.999C-0.003,134.424 134.423,-0.001 299.997,-0.001ZM312.042,529.278C313.027,505.267 309.581,481.828 315.445,458.719C317.338,451.262 317.761,431.348 305.44,431.348C290.835,427.594 290.783,446.079 288.543,456.837C286.391,464.632 284.239,472.43 282.087,480.225C281.56,489.012 281.036,497.801 280.511,506.588C281.064,534.985 283.994,550.94 274.606,555.347C266.198,558.231 241.726,567.315 235.081,555.347C231.655,539.929 233.348,523.828 233.348,507.933C233.19,500.731 233.034,493.524 232.875,486.319C234.762,476.133 238.432,461.908 229.491,453.86C227.968,453.531 226.446,453.2 224.923,452.868C219.307,457.923 220.321,474.09 219.727,480.649C217.48,505.425 216.499,530.354 216.499,555.275C214.398,557.59 212.3,559.906 210.199,562.221C205.01,562.221 177.845,566.634 175.634,560.661C173.393,556.629 168.943,553.467 167.838,548.825C166.682,530.646 168.048,470.603 169.688,463.19C170.7,456.932 173.089,450.576 175.477,444.221C181.197,425.835 184.824,396.692 179.649,382.069C168.593,350.822 130.94,366.519 111.782,370.832C89.052,375.946 58.445,368.464 41.939,350.178C27.84,334.56 30.675,310.784 31.545,291.214C33.573,245.584 53.859,187.314 81.15,150.467C101.657,122.777 125.646,85.625 139.336,89.732C150.324,93.028 167.297,116.459 176.658,124.884C180.937,128.735 186.83,137.993 193.113,134.308C199.398,130.626 186.706,114.938 183.902,108.371C179.47,98.002 179.806,84.018 179.806,72.794C185.484,62.575 203.317,57.495 213.978,54.296C218.996,51.86 322.545,21.403 342.398,38.209C348.65,55.092 333.58,65.936 333.58,81.511C334.788,81.652 335.996,81.794 337.201,81.936C344.274,75.571 370.829,56.557 381.609,57.769C385.677,60.013 389.746,62.258 393.813,64.502C398.658,68.07 403.843,70.432 404.837,76.692C405.911,83.461 398.872,91.229 396.334,97.173C388.028,116.611 385.648,134.592 359.406,131.757C347.887,130.512 334.986,113.831 322.084,119.639C321.718,123.11 321.349,126.585 320.981,130.056C323.355,135.043 350.434,165.915 353.343,168.043C357.857,171.067 362.373,174.091 366.885,177.114C372.014,179.971 379.634,181.508 385.467,181.508C406.859,176.694 406.727,143.108 406.727,126.159C413.609,114.362 426.898,89.164 434.915,85.479C443.149,88.296 497.321,129.609 555.696,247.063C558.294,254.861 587.371,329.73 551.524,356.912C532.738,368.988 510.469,363.69 489.48,364.635C467.012,365.647 440.947,380.005 428.064,398.227C422.302,406.378 414.426,416.26 412.002,426.08C405.139,453.876 415.932,484.192 414.364,512.4C413.782,522.886 417.819,538.779 413.105,548.329C409.293,556.049 368.44,572.053 360.744,565.126C357.129,555.366 362.955,545.056 364.76,535.716C367.084,523.684 369.259,509.594 369.259,497.369C369.259,492.211 370.462,479.776 356.055,479.764C342.057,480.612 341.806,504.234 341.752,507.273C341.639,508.69 341.68,512.276 341.797,516.947L342.806,549.313C342.923,553.985 342.964,557.571 342.851,558.989C340.242,567.162 318.481,566.691 308.742,566.691L312.042,529.278ZM307.032,402.852C310.17,404.642 313.801,403.418 315.786,400.291C317.617,395.242 319.448,390.193 321.279,385.145C327.633,375.617 342.565,381.209 342.565,364.429C342.565,360.899 341.384,357.926 338.168,355.996C320.208,345.22 285.642,341.432 281.431,367.968C279.97,377.166 292.744,376.514 296.178,382.698C296.178,385.891 295.744,395.209 296.873,398.26C300.299,400.315 303.132,402.432 307.032,402.852ZM307.366,402.875L308.499,402.945C308.46,403.031 308.421,403.12 308.382,403.206L307.366,402.875L307.032,402.852L306.58,402.618L307.366,402.875ZM162.818,183.748C155.659,184.541 147.95,183.812 141.313,187.297C125.475,195.609 105.92,223.682 103.254,241.272C102.061,249.16 96.858,255.879 100.826,263.913C104.776,271.912 120.246,276.272 127.489,279.685C149.575,290.097 171.811,293.317 195.968,294.675C207.473,295.323 220.403,298.532 230.96,292.593C249.513,282.16 242.205,263.286 238.132,247.154C213.125,178.64 185.402,184.868 162.818,183.748ZM418.79,189.067C423.585,186.4 428.305,187.553 433.518,187.083C467.672,184.01 493.332,212.691 503.616,242.776C505.791,249.133 508.607,255.896 507.492,262.919C506.036,272.099 494.399,278.668 489.33,285.509C472.881,292.911 453.287,288.19 435.888,287.071C414.484,285.694 376.077,295.037 369.029,265.442C368.623,258.276 368.218,251.11 367.815,243.944C367.815,236.956 368.522,233.178 371.804,226.85C381.015,209.089 403.816,202.207 417.265,190.102C417.773,189.756 418.281,189.412 418.79,189.067Z" style="fill:rgb(134,144,133);"/>
        </g>
    </g>
</svg>
